X:1
T:Title
%%score ( 1 2 ) 3
L:1/8
Q:1/4=120
M:9/8
K:D
V:1 treble nm="Strings 1, Soprano"
V:2 treble 
V:3 bass nm="Strings 1, Bass"
V:1
 z3 z3 [FA]2 [=F^G] | [FA]3- [FA]2 [GB] [FA]2 [FA] | [DF]3 D3 [DG]2 [DF] | %3
w: 1.~We~ are~|sow * ing~ eve ry~|mo ment,~ Seeds~ that~|
 [CE]3- [CE]2 [GB] [FA]2 [EG] | [DF]6 [FA]2 [FA] | [Fd]3- [Fd]2 [Fd] [Fd]2 [Ac] | %6
w: yield~ * much~ good,~ or~|bad;~ And~ each~|one~ * is~ sure ly~|
 [GB]3 [GB]3 [GB]2 [GB] | [FA]3- [FA]2 [DA] [D^G]2 [DG] | [CA]6 [GA]2 [GA] | %9
w: grow ing,~ Cheer ing~|souls~ * or~ mak ing~|sad;~ Let~ us~|
 [Gc]3- [Gc]2 [Gc] [GB]2 [Gc] | [Fd]3 [FA]3 [FA]2 [FA] | [Ec]3- [Ec]2 [Ec] [GB]2 [Gc] | %12
w: sow~ * good~ seeds~ for~|Je sus,~ In~ the~|hearts~ * of~ fall en~|
 [Fd]6 [DF]2 [EG] | [FA]3- [FA]2 [FA] [FA]2 [FA] | [GB]3 [Gd]3 [Ge]2 [Gd] | %15
w: men,~ Man y~|hap * py~ souls~ will~|bless~ us,~ And~ a~|
 [Gc]3- [Gc]2 [Gc] [GB]2 [Gc] |[M:12/8] z12 | z12 | z12 | z12 | z12 | z12 | z12 | z6 z3 d3- | %24
w: crown~ * of~ glo ry~|||||||||
 d6 z6 |] %25
w: |
V:2
 x9 | x9 | x9 | x9 | x9 | x9 | x9 | x9 | x9 | x9 | x9 | x9 | x9 | x9 | x9 | x9 | %16
[M:12/8] [Fd]6 [DF]2 [EG] [FA]3- | [FA]3- [FA]2 [Fd] [Fd]2 [DF] [DF]3- | %18
 [DF]3 D3 [EG]2 [DF] [CE]3- | [CE]3- [CE]2 [GB] [FA]2 [EG] [DF]3- | [DF]6 [DF]2 [EG] [FA]3- | %21
 [FA]3- [FA]2 [Fd] [Fd]2 [Ac] [GB]3- | [GB]3 [Gd]3 [Ge]2 [Gd] [Gc]3- | %23
 [Gc]3- [Gc]2 [Gc] [GB]2 [Gc] F2 F | G2 G F3 z6 |] %25
V:3
 z3 z3 [D,D]2 [D,D] | [D,D]3- [D,D]2 [D,D] [D,D]2 [D,D] | [D,A,]3 [D,F,]3 [D,B,]2 [D,A,] | %3
 [A,,A,]3- [A,,A,]2 [A,,A,] [A,,A,]2 [A,,A,] | [D,A,]6 [D,D]2 [D,D] | %5
 [D,A,]3- [D,A,]2 [D,A,] [D,A,]2 [F,D] | [G,D]3 [G,D]3 [G,D]2 [G,D] | %7
 [D,D]3- [D,D]2 [F,A,] [E,B,]2 [E,B,] | [A,,A,]6 [A,C]2 [A,C] | %9
 [A,E]3- [A,E]2 [A,E] [A,,A,C]2 [A,,A,] | [D,A,]3 [D,D]3 [D,D]2 [D,A,] | %11
 [A,,A,]3- [A,,A,]2 [A,,A,] [A,,A,]2 [A,,A,] | [D,A,]6 [D,A,]2 [D,A,] | %13
 [D,D]3- [D,D]2 [D,D] [D,D]2 [D,D] | [G,D]3 [G,B,]3 [G,B,]2 [G,B,] | A,3- A,2 A, [A,,A,]2 [A,,A,] | %16
[M:12/8] [D,A,]6 [D,A,]2 [D,A,] [D,D]2 [D,D] | %17
 [D,D]2 [D,D] [D,D]2 [D,A,] [D,A,]2 [D,A,] [D,A,]2 [D,A,] | %18
 [D,A,]2 [D,A,] [D,F,]3 [C,A,]2 [D,A,] [A,,A,]2 [A,,A,] | %19
 [A,,A,]2 [A,,A,] [A,,A,]2 [A,,A,] [B,,A,]2 [C,A,] [D,A,]2 [D,A,] | %20
 [D,A,]2 [D,A,] .[D,A,]3 [D,A,]2 [D,A,] [D,D]2 [D,D] | %21
 [D,D]2 [D,D] [D,D]2 [D,A,] [D,A,]2 [F,D] [G,D]2 [G,D] | %22
 [G,D]2 [G,D] [G,B,]3 [G,B,]2 [G,B,] A,2 A, | A,2 A, A,2 A, [A,,A,]2 [A,,A,] [D,A,]2 [D,A,] | %24
 [D,B,]2 [D,B,] [D,A,]3 z6 |] %25

